X:1
T:RVW2/1/179 Come All You Worthy Christians
T:RVW2/1/179 Come All You Worthy Christians
T:Transcribed by Simon Furey and Lewis Jones Herefordshire, August 1910 (phonograph Yeo)
C:Transcribed by Simon Furey and Lewis Jones
C:Herefordshire, August 1910 (phonograph Yeo)
L:1/8
Q:1/4=120
M:6/8
K:G
V:1 treble 
V:1
"^(Editorial suggestion)" D | G2 G G2 A | B2 A G2 G | A2 A F2 F | G3- G2 :| G | A2 A A2 A | %7
w: O|Job he was a|pat- ient man, a|rich man of the|east. *|He|bore it all most|
w: How|he was brought(?) to|pov- er- ty his|sor- rows did in-|crease. *|||
 A2 B (cB)A | B2 B B2 A | (B2 c d3- | d3) d2 c |"^(a)" B2 A G2 d |"^(b)" B2 A G2 G | A2 A F2 F | %14
w: pat- ient- ly * and|nev- er did re-|pine, * *|* and he|al- ways trust- ed|in the Lord and|soon got rich a-|
w: |||||||
 G3 z z G | A2 A A2 A | (A2 B cB)A | B2 B B2 A | (B2 c !fermata!d2) d | B2 A G2 d | B2 A G2 G | %21
w: gain, and|soon got rich a-|gain, * * * and|soon got rich a?|gain. * * He|al- ways trust- ed|in the Lord and|
w: |||||||
 A2 A F2 F | G3- G2 |: D | G2 G G2 A | B2 A G2 G | A2 A F2 F | G3- G2 :| G | A2 A A2 A | %30
w: soon got rich a-|gain. *|O|Job he was a|pat- ient man, a|rich man of the|east. *|He|bore it all most|
w: ||How|he was brought(?) to|pov- er- ty his|sor- rows did in-|crease. *|||
 A2 B (cB)A | B2 B B2 A | (B2 c d3- | d3) d2 c |"^(a) var." B2 A B2 d |"^(b) var." B2 A (GF)G | %36
w: pat- ient- ly * and|nev- er did re-|pine, * *|* and he|al- ways trust- ed|in the Lord * and|
w: ||||||
 A2 A F2 F | G3 z z G | A2 A A2 A | (A2 B cB)A | B2 B B2 A | (B2 c !fermata!d2) d | B2 A G2 d | %43
w: soon got rich a-|gain, and|soon got rich a-|gain, * * * and|soon got rich a?|gain. * * He|al- ways trust- ed|
w: |||||||
 B2 A G2 G | A2 A F2 F | G3- G2 |][M:2/4][Q:1/4=116]"^Allegro" B>A GB | c(3B/c/B/ A2 | B>A GB | %49
w: in the Lord and|soon got rich a-|gain. *||||
w: ||||||
 AF D(3E/F/G/ | B>A GB | c>B A2 | B2 A>F | GG G2 | B(3c/B/A/ GB | c(3B/c/B/ A2 | B>A GB | %57
w: ||||||||
w: ||||||||
 AF D(3E/F/G/ | B>A GB | c>B A2 | B2 A>F | GG G2!fine! |: dgdg | fefe | dgdg | fg a2 | dgdg | %67
w: ||||||||||
w: ||||||||||
 fefe | d2 b>a | gg g2!D.C.! :| %70
w: |||
w: |||

